svgs/light/computer-mouse-scrollwheel.svg

<svg xmlns="http://www.w3.org/2000/svg" viewBox="0 0 384 512"><!-- Font Awesome Pro 6.0.0-alpha2 by @fontawesome - https://fontawesome.com License - https://fontawesome.com/license (Commercial License) --><path d="M224 0H160C71.625 0 0 71.625 0 160V352C0 440.375 71.625 512 160 512H224C312.375 512 384 440.375 384 352V160C384 71.625 312.375 0 224 0ZM352 352C351.875 422.625 294.625 479.875 224 480H160C89.375 479.875 32.125 422.625 32 352V160C32.125 89.375 89.375 32.125 160 32H224C294.625 32.125 351.875 89.375 352 160V352ZM192 96C183.156 96 176 103.156 176 112V176C176 184.844 183.156 192 192 192S208 184.844 208 176V112C208 103.156 200.844 96 192 96Z"/></svg>

<svg xmlns="http://www.w3.org/2000/svg" viewBox="0 0 384 512"><!--! Font Awesome Pro 6.0.0-alpha3 by @fontawesome - https://fontawesome.com License - https://fontawesome.com/license (Commercial License) --><path d="M224 0H160c-88.38 0-160 71.63-160 160v192c0 88.38 71.63 160 160 160h64c88.38 0 160-71.63 160-160V160C384 71.62 312.4 0 224 0zM352 352c-.125 70.63-57.38 127.9-128 128H160c-70.63-.125-127.9-57.38-128-128V160c.125-70.63 57.38-127.9 128-128h64c70.63 .125 127.9 57.38 128 128V352zM192 95.1c-8.844 0-16 7.156-16 16v64C176 184.8 183.2 192 192 192s16-7.156 16-16v-64C208 103.2 200.8 95.1 192 95.1z"/></svg>
